Breeze Round Light/places/24/user-trash-full.svg

<svg version="1.1" viewBox="0 0 24 24" xmlns="http://www.w3.org/2000/svg">
    <style type="text/css" id="current-color-scheme">
        .ColorScheme-Text {
            color:#232629;
        }
    </style><g transform="translate(1,1)">
    <path d="m8 3v2h-4v1h1v13h12v-13h1v-1h-4v-2zm1 1h4v1h-4zm-1 5h1v6h-1zm5 0h1v6h-1z" class="ColorScheme-Text" fill="currentColor"/>
</g></svg>

<svg xmlns="http://www.w3.org/2000/svg" version="1.1" viewBox="0 0 24 24" width="24" height="24">
  <style type="text/css" id="current-color-scheme"> .ColorScheme-Text { color:#eff0f1; } </style>
  <g transform="translate(1,1)">
    <path d="M 8 3 L 8 5 L 4 5 L 4 6 L 5 6 L 5 12 L 5 16 C 5 17.662 6.338 19 8 19 L 14 19 C 15.662 19 17 17.662 17 16 L 17 12 L 17 6 L 18 6 L 18 5 L 14 5 L 14 3 L 8 3 z M 9 4 L 13 4 L 13 5 L 9 5 L 9 4 z M 8 9 L 9 9 L 9 12 L 9 15 L 8 15 L 8 12 L 8 9 z M 13 9 L 14 9 L 14 12 L 14 15 L 13 15 L 13 12 L 13 9 z " class="ColorScheme-Text" fill="currentColor"/>
  </g>
</svg>
